www/assets/icons/auto_fix_off.svg

<svg width="24" height="24" viewBox="0 0 24 24" xmlns="http://www.w3.org/2000/svg" fill='currentColor'><path d="M22.5013 1.49878L20.0013 2.89878L17.5013 1.49878L18.9013 3.99878L17.5013 6.49878L20.0013 5.09878L22.5013 6.49878L21.1013 3.99878L22.5013 1.49878ZM14.1613 7.71878L16.2813 9.83878L13.8413 12.2788L14.6513 13.0888L17.2013 10.5388C17.5913 10.1488 17.5913 9.51878 17.2013 9.12878L14.8613 6.78878C14.4713 6.39878 13.8413 6.39878 13.4513 6.78878L10.9013 9.33878L11.7113 10.1488L14.1613 7.71878ZM2.77128 3.75878L1.50128 5.02878L8.36128 11.8888L1.79128 18.4588C1.40128 18.8488 1.40128 19.4788 1.79128 19.8688L4.13128 22.2088C4.52128 22.5988 5.15128 22.5988 5.54128 22.2088L12.1113 15.6388L18.9713 22.4988L20.2413 21.2288L2.77128 3.75878Z"/></svg>

<svg xmlns="http://www.w3.org/2000/svg" width="24" height="24" viewBox="0 0 24 24" fill='currentColor'><path d="m22.501 1.499-2.5 1.4-2.5-1.4 1.4 2.5-1.4 2.5 2.5-1.4 2.5 1.4-1.4-2.5zm-8.34 6.22 2.12 2.12-2.44 2.44.81.81 2.55-2.55a.996.996 0 0 0 0-1.41l-2.34-2.34a.996.996 0 0 0-1.41 0l-2.55 2.55.81.81zm-11.39-3.96-1.27 1.27 6.86 6.86-6.57 6.57a.996.996 0 0 0 0 1.41l2.34 2.34c.39.39 1.02.39 1.41 0l6.57-6.57 6.86 6.86 1.27-1.27z"/></svg>
